Numix-GalliumOS/22/categories/applications-viewers.svg

<?xml version="1.0" encoding="UTF-8" standalone="no"?>
<svg
   xmlns:dc="http://purl.org/dc/elements/1.1/"
   xmlns:cc="http://creativecommons.org/ns#"
   xmlns:rdf="http://www.w3.org/1999/02/22-rdf-syntax-ns#"
   xmlns:svg="http://www.w3.org/2000/svg"
   xmlns="http://www.w3.org/2000/svg"
   xmlns:sodipodi="http://sodipodi.sourceforge.net/DTD/sodipodi-0.dtd"
   xmlns:inkscape="http://www.inkscape.org/namespaces/inkscape"
   width="22"
   height="22"
   viewBox="0 0 22 22"
   id="svg2"
   version="1.1"
   inkscape:version="0.91 r"
   sodipodi:docname="applications-viewers.svg">
  <metadata
     id="metadata12">
    <rdf:RDF>
      <cc:Work
         rdf:about="">
        <dc:format>image/svg+xml</dc:format>
        <dc:type
           rdf:resource="http://purl.org/dc/dcmitype/StillImage" />
        <dc:title />
      </cc:Work>
    </rdf:RDF>
  </metadata>
  <defs
     id="defs10" />
  <sodipodi:namedview
     pagecolor="#ffffff"
     bordercolor="#666666"
     borderopacity="1"
     objecttolerance="10"
     gridtolerance="10"
     guidetolerance="10"
     inkscape:pageopacity="0"
     inkscape:pageshadow="2"
     inkscape:window-width="1680"
     inkscape:window-height="1026"
     id="namedview8"
     showgrid="true"
     inkscape:zoom="42.909091"
     inkscape:cx="6.8526449"
     inkscape:cy="10.076841"
     inkscape:window-x="0"
     inkscape:window-y="24"
     inkscape:window-maximized="1"
     inkscape:current-layer="svg2">
    <inkscape:grid
       type="xygrid"
       id="grid4140" />
  </sodipodi:namedview>
  <path
     style="fill:#4cb29c"
     d="m 10.995473,5.4999991 c -0.18749,0 -0.366458,0.017042 -0.549685,0.025562 C 8.2342638,5.6107665 6.5255532,6.1944224 5.3409601,6.8036405 4.0583619,7.4597207 3.3126649,8.2010072 3.3126649,8.2010072 c -0.4175907,0.4388075 -0.4175907,1.2269561 0.00426,1.6615024 0.4261124,0.4388074 1.1931148,0.4388074 1.6192272,0.00852 0,0 0.3153238,-0.3195201 1.0269307,-0.7327654 C 5.754288,9.7219201 5.652021,10.348179 5.652021,11 c 0,3.024788 2.4075361,5.500001 5.343451,5.500001 2.935914,0 5.343449,-2.475213 5.343449,-5.500001 0,-0.656081 -0.102267,-1.2780799 -0.311062,-1.8617358 0.707346,0.4132453 1.026931,0.7327654 1.026931,0.7327654 0.421851,0.4430674 1.201637,0.4473274 1.62775,0.00852 0.426112,-0.4388075 0.421851,-1.2354761 -0.0043,-1.6700235 0,0 -0.749958,-0.7412855 -2.028294,-1.4016268 C 15.465392,6.1986824 13.75242,5.6192865 11.545157,5.5340812 11.366191,5.5127801 11.1787,5.5085202 10.995473,5.5085202 Z m 0,1.7296678 c 1.700188,0 4.052329,0.8009297 4.052329,3.7703331 0,2.598762 -1.602183,4.136717 -4.052329,4.136717 -2.4160584,0 -4.0182412,-1.576298 -4.0182412,-4.136717 0,-2.6371033 2.3180517,-3.7703331 4.0182412,-3.7703331 z"
     id="path4"
     inkscape:connector-curvature="0" />
  <path
     style="fill:none;stroke:#4cb29c;stroke-width:1.5;stroke-linecap:round;stroke-linejoin:round;stroke-miterlimit:4;stroke-dasharray:none"
     d="M 12.25,11.003386 C 12.25,11.687669 11.69134,12.25 11,12.25 10.308659,12.25 9.75,11.687669 9.75,11.003386 9.75,10.31233 10.308659,9.75 11,9.75 c 0.69134,0 1.25,0.56233 1.25,1.253386 z"
     id="path6"
     inkscape:connector-curvature="0" />
</svg>

<svg xmlns="http://www.w3.org/2000/svg" viewBox="0 0 22 22">
 <path d="m 10.995 5.5 c -0.187 0 -0.366 0.017 -0.55 0.026 c -2.212 0.085 -3.92 0.669 -5.105 1.278 -1.283 0.656 -2.028 1.397 -2.028 1.397 c -0.418 0.439 -0.418 1.227 0.004 1.662 0.426 0.439 1.193 0.439 1.619 0.009 0 0 0.315 -0.32 1.027 -0.733 c -0.209 0.584 -0.311 1.21 -0.311 1.862 c 0 3.02 2.408 5.5 5.343 5.5 2.936 0 5.343 -2.475 5.343 -5.5 0 -0.656 -0.102 -1.278 -0.311 -1.862 0.707 0.413 1.027 0.733 1.027 0.733 0.422 0.443 1.202 0.447 1.628 0.009 0.426 -0.439 0.422 -1.235 -0.004 -1.67 0 0 -0.75 -0.741 -2.028 -1.402 c -1.185 -0.609 -2.898 -1.189 -5.105 -1.274 -0.179 -0.021 -0.366 -0.026 -0.55 -0.026 m 0 1.721 c 1.7 0 4.052 0.801 4.052 3.77 0 2.599 -1.602 4.137 -4.052 4.137 -2.416 0 -4.02 -1.576 -4.02 -4.137 0 -2.637 2.318 -3.77 4.02 -3.77 z" style="fill:#4cb29c"/>
 <path d="m 12.25 11 c 0 0.684 -0.559 1.247 -1.25 1.247 -0.691 0 -1.25 -0.562 -1.25 -1.247 0 -0.691 0.559 -1.253 1.25 -1.253 c 0.691 0 1.25 0.562 1.25 1.253 z" style="stroke-dasharray:none;fill:none;stroke-miterlimit:4;stroke:#4cb29c;stroke-linecap:round;stroke-linejoin:round;stroke-width:1.5"/>
</svg>
